X: 1
T:Calium Mo Ruimsa  "CCPB Okt-1995"
M:9/8
L:1/8
Q:80
C:Seconds
S:Slow Air
K:HP
[| {g}ABd{g}f3{gef}e2f|
{gef}edB{g}A3{GAG}A2f|
{gf}g{a}fg{a}ABc{Gdc}d2c2|  !
{gBd}B{e}G{d}B{g}cdB{g}A2f|
{g}f2{GdG}f{Gdc}d3{gcd}c2B|
{g}ceg{a}f2g{fg}f2d|  !
{gef}ede{g}f3{Gdc}d2B|
{g}Aeg{a}fge{gef}e/2f3/2A|]
{GAG}AB{G}A{Gdc}d3{gef}e2f|  !
{gef}edB{g}A3{GAG}A2f|
{gf}g{a}fg{a}ABc{Gdc}d2c2|
{gBd}B{e}G{d}B{g}cdB{g}A2f|  !
{g}f2{GdG}f{Gdc}d3{gcd}c2B|
{g}ceg{a}f2g{fg}f2d|
{gef}ede{g}f3{Gdc}d2B|  !
{g}Aeg{a}fge{gef}e/2f3/2-f|]
